!!!OTL: 563. Entschuldigung.
!!!ODT: 1883
!!!ARE: Europa, Mitteleuropa, Deutschland
!!!SCT: B0563
!!!TXL: @@DE
!!!YEM: Copyright 1995, estate of Helmut Schaffrath.
**kern	**text
*ICvox	*
*Ivox	*
*clefG2	*
*M4/4	*
*met(c)	*
*k[b-e-a-]	*
*E-:	*
!LO:TX:a:t=Mäßig.	!
{4g	Wenn
4g	wir
=1	=1
4.b-	durch
8g	die
8gL	Stra-
8fJ	.
8e-L	-ßen
8fJ	.
=2	=2
4g	ʒie-
4e-}	-hen,
{4.g	recht
8g	wie
=3	=3
4f	Burſch'
4b-	in
4.dd	Saus
8cc	und
=4	=4
2b-}	Braus,
{4g	ſchau-
4g	-en
=5	=5
4.b-	Au-
8g	-gen,
8gL	blau'
8fJ	.
8e-L	und
8fJ	.
=6	=6
4g	grau-
4e-}	-e,
{4.g	ſchwarʒ
8g	und
=7	=7
4f	braun
4b-	aus
4.dd	man-
8cc	-chem
=8	=8
2b-}	Haus
{4b-	und
4b-	ich
=9	=9
8ccL	laß
8b-J	.
8ccL	die
8b-J	.
8ccL	Bli-
8b-J	.
8ccL	-cke
8b-J	.
=10	=10
8b-L	ſchweifen
8ee-J	.
4ee-}	.
{8ee-L	nach
8b-J	.
8a-L	den
8gJ	.
=11	=11
4.f	Fen-
8f	-ſtern
4b-	hin
4a-	und
=12	=12
(4a-qq	.
2g)}	her,
{4b-	faſt
4b-	als
=13	=13
8ccL	wollt'
8b-J	.
8ccL	ich
8b-J	.
8ccL	ei-
8b-J	.
8ccL	-ne
8b-J	.
=14	=14
8b-L	ſu-
8ee-J	.
4ee-}	-chen,
{8ee-L	die
8b-J	.
8a-L	mir
8gJ	die
=15	=15
4f	Al-
4cc	-ler-
4.b-	-lieb-
8d	-ſie
=16	=16
2e-}	wär'.
==	==
!!!AGN: Studenten -, Wander -, Liebes - Lied
!!!GTL: Studentenlieder
!!!ONB: ESAC (Essen Associative Code) Database: BOEHME
!!!AMT: simple quadruple
!!!AIN: vox
!!!EED: Helmut Schaffrath
!!!EEV: 1.0
!!@@COMMENT:"Gedicht v. Wilh. Müller. Ʒuerſt in: "77 Gedichte aus den hinterlaſſenen Papieren eines
!!Waldhorniſten", Deſſau 1821, S. 81. Mit dieſer Melodie ʒuerſt in: "Liederbuch für Künſtler" 1833
!!S. 155. Die 3. Strophe iſt Ʒuſatʒ in ſpätern Studentenliederbücher."
!!@@END:
!!!Text: W. Müller
!!!URL-scan: https://archive.org/details/BoehmeVtLieder1895/page/n447/mode/2up
!!!ENC: Anna Maria Matuszewska
!!!EEV: 2024/12/07
*-	*-
